X:1
T:D'un heur vrayment
T:Didier Poncet (fl. 1611)
T:Philippe Desportes (1546-1606)
T:D'un heur vrayment
T:(Beatus vir, ps. 1)
T:(c) Wim Looyestijn, 2019. May be freely copied for non-commercial use.
T:(c) Wim Looyestijn, 2019. May be freely copied for non-commercial use.
T:(c) Wim Looyestijn, 2019. May be freely copied for non-commercial use.
T:(c) Wim Looyestijn, 2019. May be freely copied for non-commercial use.
T:(c) Wim Looyestijn, 2019. May be freely copied for non-commercial use.
T:(c) Wim Looyestijn, 2019. May be freely copied for non-commercial use.
T:(c) Wim Looyestijn, 2019. May be freely copied for non-commercial use.
T:(c) Wim Looyestijn, 2019. May be freely copied for non-commercial use.
T:(c) Wim Looyestijn, 2019. May be freely copied for non-commercial use.
T:(c) Wim Looyestijn, 2019. May be freely copied for non-commercial use.
T:(c) Wim Looyestijn, 2019. May be freely copied for non-commercial use.
T:(c) Wim Looyestijn, 2019. May be freely copied for non-commercial use.
T:(c) Wim Looyestijn, 2019. May be freely copied for non-commercial use.
C:Didier Poncet
C:(fl. 1611)
Z:Philippe Desportes
Z:(1546-1606)
Z:(c) Wim Looyestijn, 2019. May be freely copied for non-commercial use.
%%score 1 2 3 4
L:1/8
Q:1/4=120
M:2/2
K:F
V:1 treble nm="Superius"
V:2 alto2 nm="Contra tenor"
V:3 alto nm="Tenor"
V:4 bass3 nm="Bassus"
V:1
 x8 | z8 | x8 | G4 A2 B2 | G2 A3 B c2- | c2 B2 A2 d2 | c4 B4 | c4 z2 d2- | d2 e2 f4 | d2 c4 =B2 | %10
w: |||D'un heur vrai-|ment par- * *|* fait, d'un heur|par- *|fait, d'un|_ heur vrai-|ment par- *|
 c4 d2 e2 | f4 d2 d2 | G2 A2 B2 c2 | B2 B2 A4 | D4 z2 A2 | c2 d4 f2- | f2 f2 f4 | f2 B4 d2 | %18
w: fait, d'un heur|vrai- ment par-|fait cet homm' a|jo- uis- san-|ce, cet|homm' a jo-|* uis- san-|ce, qui ne|
 d2 f4 d2 | d2 d2 f2 f2 | f2 e2 e4 | c6 A2- | A2 B4 A2- | AG G4 ^F2 | G4 d4 | c2 A2 =B2 c2 | %26
w: fuit des per-|vers, qui ne fuit|des per- vers|le con-|* ceil de-|* ce- * *|vant: Et|qui n'est ar- rê-|
 d4 z2 e2 | f4 g4 | f2 d2 e4 | A4 d4 | G2 c4 B2- | B2 A2 B4 | A4 c4- | c2 d2 d2 ^c2 | %34
w: té par|fol- le ac-|cou- tu- man-|ce au|trac que les|_ pe- cheurs|à clos|_ yeux vont sui-|
 d2 d2 =B2 c2 | d4 c4 | c2 c4 A2- | A2 =B2 c4 | =B2 A2 c4 | B4 A4 | E4 F4- | F2 f2 e4- | %42
w: vant: et qui ne|s'est as-|sis au banc|_ _ de|pes- ti- len-|ce, où|la voix,|_ où la|
 e2 ^f2 g2 d2 | d4 d2 g2- | g2 G4 c2- | c2 c2 d2 d2 | A3 A B2 B2 | A8 || A4 B4 | A4 c2 d2 | d4 z4 | %51
w: _ voix des moc-|queurs blas- phê-|* me si|_ sou- vent, blas-|phê- me si sou-|vent.|Mais la|loi du Seig-|neur|
 z4 A4- | A2 B2 c4 | d2 c2 B2 A2 | z2 B2 A2 G2 | A2 f2 f2 d2 | ^c2 d2 e4 | A6 G2 | A2 B2 c3 d | %59
w: sa|_ vo- lon-|té con- stan- te,|sa vo- lon-|té, sa vo- lon-|té con- stan-|te, sa|vo- lon- té _|
 e2 f2 e4 | d4 d4 | c2 G2 A2 B2- | Bc d4 ^c2 | d6 e2 | f6 _e2 | d6 A2 | d2 e4 f2- | fe g4 f2 | g8 | %69
w: _ con- stan-|te, cet-|te loi nuit et|_ _ _ _|jour, loi|nuit _|et _|jour est tout|_ son pen- se-|ment:|
 G4 e4 | d4 f4- | f2 _e2 d4 | =B2 c4 A_B | c2 B4 A2 | B4 c4 | f2 e2 d3 c | B2 c2 d4 | z4 c2 f2 | %78
w: Et se-|ra tout|_ ain- si,|et se- ra _|_ tout ain-|si com-|me une bel- le|plan- * te,|qui sur|
 f2 fe dc B2- | B2 B2 B2 d2- | d2 g4 G2 | A2 B2 B2 A2 | d2 d2 c3 c | d4 d4 | G2 A4 d2- | %85
w: le cours _ _ _ _|_ des eaux prend|_ son nour-|ris- se- ment, prend|son nour- ris- se-|ment, tou-|jours en sa|
 d2 c2 =B4 | c4 d4 | c4 d3 c/B/ | A2 B2 d4 | d2 B4 A2- | A2 G2 A2 A2 | ^c4 z4 | z8 | z8 | %94
w: _ sai- son|de frui-|ta- ge a- * *|* bon- dan-|te, et qui|_ ne perd ja-|mais|||
 d4 B2 A2 | Bc d4 ^c2 | d8 || d4 z2 A2- | A2 B2 A2 A2 | G4 z2 AB | c2 =B2 c2 d2- | d2 ^c2 d4 | %102
w: son verd ac-|cou- * * tre-|ment.|Bref, tout|_ ce qu'il se-|ra, fa- vo-|ra- ble et pros- pè-|* * re,|
 G2 G2 d2 c2- | c2 c2 d4 | d8 | e2 f2 g4 | f4 z2 c2- | c2 f4 d2 | c2 A2 G4 | z2 d2 e2 ^f2 | %110
w: fa- vo- ra- ble et|_ pros- pè-|re,|et pros- pè-|re au|_ gré de|tous de- sirs|se- ra tou-|
 g2 ^f2 g2 g2 | f2 e2 d2 ^c2 | d2 d2 c4 | e2 f4 d2 | c4 B4 | A2 G2 F3 E | D2 d2 c4 | d2 d2 B4 | %118
w: jours por- té, se-|ra tou- jours por-|té, mais l'é-|tat des mé-|chans i-|ra tout au _|_ con- trai-|re, et n'au-|
 B2 d4 d2 | d4 d4 | d4 e2 f2 | d6 d2 | d4 z4 | d4 e2 f2 | f2 _e2 d4 | d2 d2 dc B2- | Bc d3 cBc | %127
w: ront rien de|sta- ble|en leur pros-|pé- ri-|té,|pa- reils à|ces bour- riers|qui ba- vo- * *||
 d2 GA Bc d2 | _e4 d4 | B4 c4 | d4 GABc | defe d2 _e2 | _e2 d2 G2 A2- | A2 d4 c2 | A2 B4 c2 | %135
w: * lent _ _ _ en|l'ai- re,|et sont|chaf- fés, _ _ _|_ _ _ _ _ et|sont chaf- fés, et|_ sont chaf-|fés du vent,|
 de f2 g2 ^f2 | g4 z4 | d6 A2- | A2 B2 A2 G2 | ^F2 G2 A2 B2 | A2 d2 B4- | B2 A2 B2 B2 | %142
w: chaf- * * fés du|vent|d'un et|_ d'au- tre cô-|té, d'un et d'au-|tre cô- té,|_ d'un et d'au-|
 A2 G2 ^F2 G2 | A2 B2 B2 d2 | =B8 || A4 =B2 c2- | c2 c4 B2 | A2 c2 d2 A2 | F2 G2 B2 A2 | d2 e2 f4 | %150
w: tre cô- té, d'un|et d'au- tre cô-|té.|C'est pour- quoi|_ les per-|vers n'o- sent le-|ver, n'o- sent le-|ver la fa-|
 e4 A4 | B2 c4 B2- | B2 A2 B4 | A4 B4- | B4 A2 G2- | G2 ^F2 G4 | A4 c4 | d2 c4 B2 | A2 A2 c2 d2 | %159
w: ce se-|ront en ju-|* ge- ment|de tout|_ point con-|* dam- nés,|et tous|ces dé- pra-|vés n'au- ront au-|
 e2 f2 d4 | e2 f2 e2 d2 | ^c4 d4 | A4 d4 | c2 d4 c2 | c4 B4 | A4 B2 c2 | d4 c4 | d3 c B2 A2 | %168
w: cu- ne pla-|ce, au- cu- ne|pla- ce|par- mi|les droi- tu-|riers à|bien fai- re, a|bien fai-|re a- * * don-|
 =B4 _B4 | G2 A2 c2 F2 | F4 A2 B2- | B2 A2 B4 | B2 A2 c4 | F2 B2 A4 | G2 G2 B2 d2 | f2 d2 c2 G2 | %176
w: nés, car|Dieu cog- noît- les|bons, cog- noît|_ les bons|et re- mar-|que leur tra-|ce, mais le che-|min pé- rit, mais|
 d4 c4 | c2 d2 d4- | d4 G4- | G2 A4 B2- | B2 A2 c2 A2- | A2 G4 ^F2 | G16 |] %183
w: le che-|min pé- rit|_ des|_ pê- cheurs,|_ des pê- cheurs|_ ob- sti-|nés.|
V:2
 x8 | z8 | x8 | z4 D4 | E2 F2 D2 _E2 | D3 E F4 | G2 F4 G2 | A6 F2- | F2 ED ^C2 D2- | %9
w: |||D'un|heur vrai- ment par-|fait, _ _|vrai- ment par-|fait, vrai-|* * * * ment|
 D2 _E2 D2 G2- | G2 A2 B4 | AGFE F2 G2 | E2 F4 C2 | D8 | B,4 C4 | F4 G2 AG | FE D3 D C2 | D4 z4 | %18
w: _ par- fait, d'un|_ heur vrai-|ment _ _ _ _ par-|fait cet homm'|a|jo- uis-|san- ce, jo- *|* * * uis- san-|ce,|
 D4 F2 F2- | FG A4 A2- | A2 G2 G4 | E4 F4 | F2 F2 D4 | E4 ^C2 D2 | D4 G4 | G2 F2 D2 G2 | G4 z2 G2 | %27
w: qui ne fuit|_ _ _ des|_ per- vers|le con-|ceil, le con-|ceil de- ce-|vant: Et|qui n'est ar- rê-|té par|
 A4 G4 | A2 G2 G4 | F4 D4 | B2 AG FE D2 | C4 B,4 | D2 A4 GF | E2 A2 B2 A2 | AG F2 D2 E2 | %35
w: fol- le ac-|cou- tu- man-|ce au|trac que _ les _ _|pe- cheurs|à clos _ _|_ yeux vont sui-|vant: _ _ et qui|
 A2 D2 E2 F2 | E4 F4- | F4 A4 | z8 | D4 F4 | G2 A3 F B2- | B2 A2 G2 E2 | A4 B4 | A2 A2 =B2 B2 | %44
w: ne s'est _ as-|sis au|_ banc||où la|voix des _ _|_ moc- queurs, où|la voix|des moc- queurs blas-|
 c4 C3 B, | A,2 F4 A2 | ^F4 G2 G2 | ^F8 || z2 D4 G2- | G2 F2 E2 F2 | D2 D2 E2 F2 | G2 G2 F4 | %52
w: phê- me _|_ si sou-|vent, si sou-|vent.|Mais la|_ loi du Seig-|neur sa vo- lon-|té con- stan-|
 E2 G4 F2- | F2 E2 F4 | D4 C4 | F2 A2 B2 A2- | A4 ^G2 A2 | F3 E D2 z2 | z4 E2 F2 | G2 A4 A2 | %60
w: te, sa vo-|* lon- té|con- stan-|te, mais la loi|_ du Seig-|neur _ _|sa vo-|lon- té con-|
 A4 ^F2 G2- | G2 E2 F4 | D2 B2 A4 | A4 A4 | A6 G2- | G2 ^F2 G2 F2 | G4 A4 | G2 B2 A2 D2- | %68
w: stan- te, cet-|* te loi|nuit et jour,|nuit et|jour _|_ _ _ est|tout son|pen- se- ment: Et|
 D2 B4 B2 | B4 c4 | G4 z2 D2- | D2 B2 F2 G2 | D2 E2 C4- | C2 F2 F4 | F4 G2 A2 | A2 A2 A4 | %76
w: _ se- ra|tout ain-|si, et|_ se- ra, et|se- ra tout|_ ain- si|com- me une|bel- le plan-|
 G2 G2 F4 | D2 CB, A,G, F,2 | B,2 D4 z2 | F2 F2 F2 B2- | BAGF _E2 D2 | D2 G,2 D4 | A2 B4 A2 | %83
w: te, qui sur|le cours _ _ _ _|des eaux|qui sur le cours|_ _ _ _ _ des|eaux prend son|nour- ris- se-|
 B4 F4 | E4 ^F2 G2- | G2 G2 G4 | E4 F2 B2- | B2 A3 G G2 | ^F2 G4 F2 | G4 z4 | z8 | A4 F2 B2 | %92
w: ment, tou-|jours en sa|_ sai- son|de frui- ta-|* ge a- * *|bon- dan- *|te,||et qui ne|
 A3 G FE D2- | D2 ^C2 D4 | =B,4 D2 D2 | G6 G2 | ^F8 || z4 D4 | z2 G4 F2 | E4 D4 | C2 G2 E2 F2 | %101
w: perd _ _ _ _|_ ja- mais|son verd ac-|cou- tre-|ment.|Bref,|tout ce|qu'il se-|ra, fa- vo- ra-|
 G2 A2 F4 | E4 F2 G2 | A4 A4- | A2 G2 F4 | G2 A2 c4- | c2 F2 E2 F2 | F4 F4 | E2 C2 C4 | F2 G4 A2 | %110
w: ble et pros- pè-|re, fa- vo-|ra- ble et|_ pros- pè-|re au gré|_ de tous de-|sirs se-|ra tou- jours,|se- ra tou-|
 B2 A2 D4- | D2 A2 A2 A2 | ^F2 F2 A4 | G2 A4 B2 | A4 z2 E2 | F2 G2 A4 | B4 A4 | B2 F2 G2 ^F2 | %118
w: jours por- té,|_ tou- jours por-|té, mais l'é-|tat des mé-|chans i-|ra tout au|con- trai-|re, et n'au- ront|
 G4 ^F4 | ^F4 F4- | F2 G4 A2 | F2 G4 ^F2 | G4 z4 | G4 G2 A2 | B2 G2 F4 | F4 G4 | B3 A G3 A | B8 | %128
w: rien de|sta- ble|_ en leur|pros- pé- ri-|té,|pa- reils à|ces bour- riers|qui ba-|vo- * * *||
 G4 ^F4 | G4 C4 | z8 | F4 G4 | AGFE/D/ E2 E2 | F4 G4 | ^F2 G6 | A2 B2 B2 A2 | B2 B2 A2 G2 | %137
w: lent en|l'ai- re,||et sont|chaf- * * * * fés, et|sont chaf-|fés, et|sont chaf- fés du|vent d'un et d'au-|
 F2 G2 F4 | D4 D2 B,2 | A,2 B,2 A,2 z2 | z8 | G2 ^F2 G4 | A2 B2 A2 G2 | D2 G2 A2 A2 | G8 || %145
w: tre cô- té,|d'un et d'au-|tre cô- té,||d'un et d'au-|tre cô- té, d'un|et d'au- tre cô-|té.|
 ^F4 G2 G2- | G2 A4 F2 | F4 F4- | F2 D4 D2 | A2 A2 A4 | A4 F4 | D2 E2 F2 F2 | C2 F2 F2 G2 | %153
w: C'est pour- quoi|_ les per-|vers n'o-|* sent le-|ver la fa-|ce se-|ront en ju- ge-|ment, en ju- ge-|
 ^F4 z2 =F2 | G4 F2 D2 | _E2 D2 D4 | F4 E2 F2 | F2 F2 F4 | E4 F2 F2 | A2 A2 F4 | E2 D2 ^C2 F2 | %161
w: ment de|tout point con-|* dam- nés,|et tous ces|dé- pra- vés|n'au- ront au-|cu- ne pla-|ce, au- cu- ne|
 E4 F2 D2- | D2 A4 G2 | AG F4 E2 | F4 z2 D2 | E2 F2 G4 | F4 F4- | F2 G4 ^F2 | G4 D4 | %169
w: pla- ce par-|* mi les|droi- * * tu-|riers à|bien fai- re, a|bien fai-|* re a- don-|nés, car|
 E2 C2 F2 A2- | A2 D2 C2 F2 | F4 F4 | F4 G2 A2- | A2 G4 F2 | B4 G2 D2- | D2 F2 A2 c2- | c2 B2 A4 | %177
w: Dieu cog- noît- les|_ bons, cog- noît|les bons|et re- mar-|* que leur|tra- ce, mais|_ le che- min|_ pé- rit,|
 A2 F4 G2- | G2 F2 E4 | E2 F2 A2 G2- | G2 ^F2 G2 =F2 | F2 _E2 D3 D | D16 |] %183
w: le che- min|_ pé- rit|des pê- cheurs ob-|* sti- nés, des|pê- cheurs ob- sti-|nés.|
V:3
 x8 | z8 | x8 | z8 | z8 | G,4 A,2 B,2 | G,2 A,2 D2 D2 | E2 F3 EDC | B,2 A,G, A,2 A,2 | G,4 z2 D2 | %10
w: |||||D'un heur vrai-|ment par- fait, d'un|heur vrai- * * *|ment _ _ _ par-|fait, d'un|
 E2 F4 ED | C2 D2 D2 B,2 | C4 B,2 A,2- | A,G, G,4 ^F,2 | G,4 z2 C2 | A,2 B,4 C2- | CB, B,4 A,2 | %17
w: heur vrai- ment _|_ par- fait, d'un|heur vrai- ment|_ _ _ par-|fait cet|homm' a jo-|* uis- san- *|
 B,4 D4 | F2 F4 B,2 | A,4 D2 C2- | C2 C2 C2 C2- | C2 A,4 D2 | D4 F2 F,2 | G,4 A,4 | G,2 D4 =B,2 | %25
w: ce, qui|ne fuit, qui|ne fuit des|_ per- vers le|_ con- ceil,|le con- ceil|de- ce-|vant: Et qui|
 C2 D4 C2 | =B,4 z2 C2- | C2 D4 C2 | B,2 B,2 C4 | D4 z2 G2 | _E4 D4 | F2 F2 D4 | F4 CDEF | %33
w: n'est ar- rê-|té par|_ fol- le ac-|cou- tu- man-|ce au|trac que|les pe- cheurs|à clos _ _ _|
 G2 F2 E2 E2 | D2 A,2 G,4 | ^F,2 G,4 A,2 | G,4 z4 | z2 D2 E4- | E2 ^F2 G2 G2 | G4 D2 D2 | C4 D4 | %41
w: _ yeux vont sui-|vant: et qui|ne s'est as-|sis|au banc|_ de pes- ti-|len- ce, où|la voix|
 C4 =B,2 C2- | C2 z2 D2 G2- | G2 ^F2 G3 =F | E2 E2 E4 | z2 A,2 F4 | D4 D2 D2 | D8 || z8 | z4 A,4 | %50
w: des moc- queurs|_ blas- phê-|* me si _|_ sou- vent,|blas- phê-|me si sou-|vent.||Mais|
 B,4 A,4 | C2 C2 D2 D2 | C2 B,2 A,2 A,2 | G,4 F,2 D2- | D2 F4 E2 | D4 D4 | E2 A,2 C2 C2 | %57
w: la loi|du Seig- neur sa|vo- lon- té con-|stan- te, mais|_ la loi|du Seig-|neur sa vo- lon-|
 D3 E F2 E2 | D4 C4- | C2 D2 ^C4 | D2 D4 B,2 | C6 B,2- | B,2 G,2 A,4 | F6 E2- | E2 D2 C3 B, | %65
w: té _ _ con-|stan- te,|_ con- stan-|te, cet- te|loi nuit|_ et jour,|cet- te|_ loi nuit _|
 A,2 A,2 G,2 D2- | D2 C4 C2- | C2 D4 D2 | G,4 G,4 | E4 C4- | C2 B,4 A,2 | G,4 z2 D2 | G4 E2 F2- | %73
w: _ et jour est|_ tout son|_ pen- se-|ment: Et|se- ra|_ tout ain-|si, et|se- ra tout|
 FE D2 C4 | B,4 z2 C2 | D2 E2 FE D2- | D2 C4 B,2- | B,2 A,2 z2 A,2 | F2 F2 FEDC | B,2 B,2 B,4 | %80
w: _ _ _ ain-|si com-|me une bel- * *|* le plan-|* te, qui|sur le cours _ _ _|_ des eaux|
 z2 D2 G4 | F2 G4 F2 | F2 F2 F3 F | F4 B,4 | C4 D2 =B,2- | B,2 C2 G,4 | A,4 D4 | F4 B,3 C | %88
w: prend son|nour- ris- se-|ment, nour- ris- se-|ment, tou-|jours en sa|_ sai- son|de frui-|ta- ge a- *|
 DC B,2 A,4 | G,4 D4 | A,2 D2 ^C3 D | E2 F2 D2 D2 | F2 C2 D3 E | F2 E2 ^F4 | z2 G4 D2- | %95
w: * * bon- dan-|te, et|qui ne perd _|_ ja- mais son|verd ac- cou- *|* tre- ment,|son verd|
 D2 D2 G,2 G,2 | A,8 || z8 | z4 D4 | z2 G4 F2 | E4 G2 A2 | z4 A,2 B,2 | C4 B,4 | A,2 F3 E D2- | %104
w: _ ac- cou- tre-|ment.||Bref,|tout ce|qu'il se- ra,|fa- vo-|ra- ble et|pros- pè- * *|
 DC B,2 A,4 | C2 F4 E2 | A,2 B,2 CB,A,G, | A,4 z4 | C2 F4 E2 | A,2 B,2 C4 | z2 D4 B,2- | %111
w: * * * re|au gré de|tous de- sirs _ _ _|_|au gré de|tous de- sirs|se- ra|
 B,2 ^C2 D2 A,2 | A,6 C2- | C2 C2 D4 | F2 E2 D2 G2 | F2 E2 D2 C2 | B,4 F4 | z2 B,4 B,2- | %118
w: _ tou- jours por-|té, mais|_ l'é- tat|des mé- chans i-|ra tout au con-|trai- re,|et n'au-|
 B,2 B,2 A,2 B,2 | A,4 A,4 | D4 C4 | B,4 A,2 A,2 | G,4 z4 | B,4 C2 C2 | B,4 B,4 | B,4 G,4 | %126
w: * ront rien de|sta- ble|en leur|pros- pé- ri-|té,|pa- reils à|ces bour-|riers qui|
 G,2 B,3 A, G,2- | G,A, B,2 E2 D2 | C4 A,2 D2- | D2 E4 FE | DC B,2 B,4 | B,6 C2- | C2 D2 CB,A,G, | %133
w: ba- vo- * *|* * * lent en|l'ai- re, et|_ sont chaf- *|* * * fés,|et sont|_ chaf- fés, _ _ _|
 F,2 B,4 C2 | D3 C B,A, G,2 | D4 D4 | D2 G,2 ^F,2 G,2 | A,2 B,2 A,2 A,2 | ^F,2 G,2 A,2 D2 | D4 D4 | %140
w: _ et sont|chaf- * * * *|fés du|vent d'un et d'au-|tre cô- té, d'un|et d'au- tre cô-|té, d'un|
 ^C2 D2 E2 F2 | D4 D4 | D4 D4 | D8- | D8 || z2 D4 E2 | E4 F2 D2 | C2 A,4 D2- | D2 G,2 G2 F2- | %149
w: et d'au- tre cô-|té, d'au-|tre cô-|té.|_|C'est pour-|quoi les per-|vers n'o- sent|_ le- ver la|
 F2 E3 D D2- | D2 ^C2 D4 | G,4 A,2 B,2 | G,2 C2 D4 | D8 | _E4 D2 B,2 | A,4 G,4 | D4 C2 A,2 | %157
w: _ fa- * *|* * ce|se- ront en|ju- ge- ment|de|tout point con-|dam- nés,|et tous ces|
 B,2 A,2 D4- | D2 C2 A,2 B,2 | ^C2 D2 A,4 | A,8 | z2 A,4 F2- | F2 D2 D4 | F4 G4 | A4 D4 | %165
w: dé- pra- vés|_ n'au- ront au-|cu- ne pla-|ce|par- mi|_ les droi-|tu- riers|à bien|
 C2 D4 C2- | C2 B,4 A,2 | B,3 C D2 D2 | G,8 | C4 A,2 D2- | D2 F4 D2 | C4 D2 D2 | D4 E2 F2 | %173
w: fai- re, a bien|_ _ fai-|re a- * * don-|nés,|car Dieu cog-|* noît- les|bons et re-|mar- que leur|
 D4 D4- | D2 G,4 B,2 | D4 F2 E2 | F2 F4 E2 | F4 B,4 | A,4 C4 | C4 D4- | D4 C4 | B,4 A,4 | G,16 |] %183
w: tra- ce,|_ mais le|che- min pé-|rit, mais le|che- min|pé- rit|des pê-|* cheurs|ob- sti-|nés.|
V:4
 x8 | z8 | x8 | z8 | z8 | z4 D,4 | E,2 F,2 D,2 G,2- | G,2 F,E, D,4 | G,4 z2 D,2 | =B,,2 C,2 G,,4 | %10
w: |||||D'un|heur vrai- ment par-||fait, vrai-|ment par- fait,|
 z4 G,4 | A,2 B,4 G,2- | G,2 F,E, D,2 F,2 | B,,3 C, D,4 | z2 G,2 E,2 F,2- | F,2 B,,4 A,,2 | %16
w: d'un|heur vrai- ment|_ _ _ _ par-|fait _ _|cet homm' a|_ jo- uis-|
 D,3 E, F,4 | D,2 G,4 B,2 | B,4 B,,4 | D,2 D,4 F,2- | F,2 C,2 C,4 | z4 z2 D,2- | D,2 B,,4 D,2 | %23
w: san- * *|ce, qui ne|fuit, qui|ne fuit des|_ per- vers|le|_ con- ceil|
 C,3 B,, A,,2 D,2 | G,,4 G,4 | E,2 F,2 G,2 G,2 | G,4 z2 C,2 | F,4 E,4 | D,2 G,2 E,4 | D,2 D4 G,2- | %30
w: de- * * ce-|vant: Et|qui n'est ar- rê-|té par|fol- le ac-|cou- tu- man-|ce au trac|
 G,2 A,2 B,2 B,2 | F,4 z2 G,2 | D,E,F,G, A,B, C2- | C2 F,2 G,2 A,2 | D,2 D,4 C,2- | %35
w: _ que les pe-|cheurs à|clos _ _ _ _ _ _|_ yeux vont sui-|vant: et qui|
 C,2 =B,,2 C,2 C,2 | C,4 F,4 | D,4 A,4 | ^G,2 A,2 E,4 | G,4 z4 | z4 D,4 | F,4 G,2 A,2- | %42
w: _ ne s'est as-|sis au|banc de|pes- ti- len-|ce,|où|la voix des|
 A,2 D,2 G,4 | z2 D,2 G,4 | C,4 z2 A,,2 | F,3 E, D,4 | D,4 G,2 G,2 | D,8 || z8 | z4 z2 D,2- | %50
w: _ moc- queurs|blas- phê-|me, blas-|phê- * *|me si sou-|vent.||Mais|
 D,2 G,4 F,2 | E,2 E,2 D,4 | z4 z2 A,,2 | B,,2 C,2 D,2 D,2 | B,,4 C,4 | z2 D,4 G,2- | %56
w: _ la loi|du Seig- neur|sa|vo- lon- té con-|stan- te,|mais la|
 G,2 F,2 E,2 E,2 | D,4 z2 E,2 | F,2 G,2 A,2 G,F, | E,2 D,2 A,4 | D,4 z4 | z8 | z4 z2 A,2- | %63
w: _ loi du Seig-|neur sa|vo- lon- té con- *|* * stan-|te,||cet-|
 A,2 D,4 ^C,2 | D,3 E, F,2 C,2 | D,4 z2 D,2 | =B,,2 C,2 A,,3 _B,, | C,2 G,,2 D,4 | z8 | z8 | %70
w: * te loi|nuit _ _ et|jour est|tout son pen- *|* se- ment:|||
 z4 D,4 | B,6 G,2- | G,2 C4 F,2 | F,8 | z2 D,2 E,2 F,2 | D,2 ^C,2 D,4 | G,4 D,4 | %77
w: Et|se- ra|_ tout ain-|si|com- me une|bel- le plan-|te, qui|
 F,2 F,2 F,E,D,C, | B,,2 B,,2 B,,2 B,2 | D2 D2 DCB,A, | G,2 G,2 G,4 | z4 G,2 D2- | D2 D,2 F,3 F, | %83
w: sur le cours _ _ _|_ des eaux, qui|sur le cours _ _ _|_ des eaux|prend son|_ nour- ris- se-|
 B,,8 | z8 | z8 | z8 | z8 | z4 D,4 | B,,2 _E,2 D,3 =E, | F,2 B,,2 A,,4 | A,4 B,2 G,2 | %92
w: ment,|||||et|qui ne perd _|_ ja- mais|son verd ac-|
 F,3 E, D,E,F,G, | A,2 A,,2 D,4 | G,,4 G,2 ^F,2 | G,3 F, E,2 E,2 | D,8 || z8 | z8 | z4 D,4 | %100
w: cou- * * * * *|* tre- ment,|son verd ac-|cou- * * tre-|ment.|||Bref,|
 z2 G,4 F,2 | E,2 E,2 D,4 | z4 D,2 E,2 | F,4 D,3 E, | ^F,2 G,2 D,4 | C,8 | z4 C,2 F,2- | %107
w: tout ce|qu'il se- ra,|fa- vo-|ra- ble et _|_ pros- pè-|re,|au gré|
 F,2 D,2 A,,2 B,,2 | C,4 z2 C2- | C2 B,4 A,2 | G,2 D,2 G,4 | z8 | D,4 F,4 | C,2 F,4 G,2 | %114
w: _ de tous de-|sirs se-|* ra tou-|jours por- té,||mais l'é-|tat des mé-|
 A,2 A,,2 B,,2 C,2 | D,2 E,2 F,4 | B,,4 z4 | B,4 E,2 D,2 | E,2 B,,2 D,4 | D,8 | z2 =B,,2 C,2 A,,2 | %121
w: chans i- ra tout|au con- trai-|re,|et n'au- ront|rien de sta-|ble|en leur pros-|
 B,,3 C, D,2 D,2 | G,,4 z4 | G,4 C,2 F,2 | D,2 _E,2 B,,4 | B,,2 B,,2 B,3 A, | G,3 A, B,3 A, | %127
w: pé- * * ri-|té,|pa- reils à|ces bour- riers|qui ba- vo- *||
 G,2 _E,4 B,,2 | C,4 D,4 | G,4 A,4 | B,A,G,F, _E,4 | B,,4 z4 | z2 B,,2 C,4 | D,C,B,,A,, G,,2 C,2- | %134
w: * lent en|l'ai- re,|et sont|chaf- * * * *|fés,|et sont|chaf- * * * * fés,|
 C,2 B,,2 E,4 | D,C,B,,B, G,2 D,2 | G,4 D,4 | D,4 D,4 | D,4 D,4 | D,2 G,2 ^F,2 G,2 | %140
w: _ et sont|chaf- * * * fés du|vent d'un|et d'au-|tre cô-|té, d'un et d'au-|
 A,2 B,2 G,2 D,2 | G,2 D,2 G,2 G,2 | ^F,2 G,2 A,2 B,2 | ^F,2 G,2 G,2 F,2 | G,8 || D4 G,2 C2- | %146
w: tre cô- té, d'au-|tre cô- té, d'un|et d'au- tre cô-|té, d'au- tre cô-|té.|C'est pour- quoi|
 C2 A,4 B,2 | F,4 D,4 | B,4 G,2 D2- | D2 ^C2 D4 | A,4 z4 | z4 D,4 | E,2 F,2 D,2 G,2 | D,4 B,,4 | %154
w: _ les per-|vers n'o-|sent le- ver|_ la fa-|ce|se-|ront en ju- ge-|ment de|
 _E,4 B,,4 | C,2 D,2 G,,4 | z8 | z8 | z8 | z4 D,4 | ^C,2 D,2 A,2 D,2 | A,4 D,4 | D,4 B,4 | %163
w: tout point|con- dam- nés,||||n'au-|ront au- cu- pla-|ce par-|mi les|
 A,2 B,4 C2 | F,4 G,4- | G,2 F,2 _E,4 | D,4 F,4 | B,,4 z4 | z4 G,4 | E,2 F,4 D,2- | D,2 B,,2 F,4 | %171
w: droi- tu- riers|à bien|_ _ fai-|re a- don-|nés,|car|Dieu cog- noît-|* les bons|
 F,2 F,2 B,4 | B,,2 D,2 C,4 | B,,4 D,4 | G,2 B,2 D2 G,2 | D,4 z4 | D,4 F,2 A,2- | A,2 B,4 B,,2 | %178
w: et re- mar-|que leur tra-|ce, mais|le che- min pé-|rit,|mais le che-|* min pé-|
 D,4 z2 C,2- | C,2 F,4 G,2- | G,2 D,2 E,2 F,2 | B,,3 C, D,2 D,2 | G,,16 |] %183
w: rit des|_ pê- cheurs,|_ des pê- cheurs|ob- * * sti-|nés.|

